X:840
T: Trip to the Island
C: BB
R: reel
Q: 1/8=350
M: 4/4
L: 1/8
K: G
D|"G"G2 BG "Em"ED (3DED|"C"ce"G"dB "Am"cBAB|"G"G2 BG "Em"EDB,A,|\
"Bm"B,DGF "Em"EDEF |
"G"GABG "Em"ED (3DED|"C"cdef "G"gdBA|"Bm"Bd (3d^cd "Em"edgd|"G"BG"D"AF "G"G3 :|
A|"Em"Bdef gede|"Am"aecB AcBA|"G"GB (3B^AB "Am"=AcBA|"A"^cdec "D"d2 ef |
"G"g2 bg "D"faaf|"C"gfge "G"dBBA|"Bm"Bd (3d^cd "Em"edgd|"G"BG"D"AF "G"G3 :|

%%%%%%%%%%%%%%%%%%%%%%%%%%%%%%%%%%%%%%%%%%%

